X:1
T:Czerny - The Art Oof Finger Dexterity
T:Czerny - The Art Of Finger Dexterity
T:8. Light Action of the Left Hand
T:C.Czerny, Op. 740, Book 1
T:--
C:C.Czerny, Op. 740, Book 1
Z:--
%%score { ( 1 3 4 ) | 2 }
L:1/8
Q:1/4=84
M:2/2
K:C
V:1 treble nm="Piano"
V:3 treble 
V:4 treble 
V:2 bass 
V:1
"Am""E7/G#""Am/C" ([CEA]6"Dm" [B,FB]2 |"E" [B,E^G]6)"E7" [B,EG]2 | %2
"Am" [A,EA]2"E" [E^GB]2"Am" [EAc]2"Dm/F" [DAd]2 |"E""F#m""Edim/G" e6"E7/G#" d2 | %4
"Am" [EAc]2"A7/G" (a4"A7" g) z |"Dm" [Adf] z"G/B" [GBdg] z"C" [G=ce] z"F/A" [Fcf] z | %6
"Bdim" [FBd] z"E7/G#" [EBe] z"Am" [EAc] z"Bdim" [FBd] z |"Am/E" ([EAc]4"E7" [E^GB]2) z2 | %8
"Am""E7/B""Am/C" ([cea]6"Dm" [Bfb]2 |"E" [Be^g]6)"E7/D" [Beg]2 | %10
"Am/C" [Aea]2"E/B" [Be^gb]2"Am" [ceac']2"A7/G""C#dim" [^ce_b^c']2 | %11
"Dm/F" [dad']2"A7/E" [=ga^c'e']2"Dm" [fad'f']2"D7/C""F#dim" [^fa_e'^f']2 | %12
"Gm/Bb"!8va(! [gd'g']2"E7/D" [^gb=e'^g']2"Am/C" [ae'a']2"E" [be'g'b']2 | %13
"Am" [c'e'c''e'']2"Am/C" [ae'a']2"Dm" [fad'f']2"Dm/F" [dad']2!8va)! | %14
"Am/E" [ceac']4"E7" [Bde^gb]4 |"Am" [Acea] z z2"G7" [=Gdf=g]4 ||"C" [Gceg]4 [gc'e'g']2 [gc'e'g']2 | %17
"G7" [gbf'=g']4 z4 |"G7" [Gdfg]4 [Gdfg]2 [Gdfg]2 |"C" [Gceg]8 | %20
"Am" ([cc']2"G" [cb]2"F" [ca]2"C/E" [cg]2) |"G7/D" [GBf] z"C" [Gce] z"G7/B" [FGd] z"C" [EGc] z | %22
"G/D" (B2 d2)"D7" (A2 c2) |"G" [B,DG]4 z4 |"C" [Gceg]4 [gc'e'g']2 [gc'e'g']2 |"G7" [gbf'=g']4 z4 | %26
"G7" [Gdfg]4 [Gdfg]2 [Gdfg]2 |"C" [Gceg]8 |"E7/D" ([^GBe^g]3 [GBeg]"Am/C" [Aea]2"E7/B" [Begb]2) | %29
"Am" [ceac']2"G#dim" [dfb]2"Am" [cec']2"C#dim/G" [^ce_b^c']2 | %30
"D/F#" [dad']2"A7/G" [^cea^c']2"D/F#" [dad']2"C??""B7/F" [^da=b^d']2 | %31
"E" [e^gbe']4"E7/D" [^G,B,E]2 [G,B,E]2 |"Am/C" [A,EA]4"Adim" [C^D^Fc]2 [CDFc]2 | %33
"E" [B,E^GB]4"E7" [EGBe]2 [EGBe]2 |"Am" [Aea]4"Adim" [c^d^fc']2 [cdfc']2 | %35
"E" [Be^gb] z [egbe'] z z4 |"CN/C" z8 |"CN/C" z8 |"CN/C" z8 ||"Am/C""Am""E/B" ([CEA]6"Dm" [B,FB]2 | %40
"E" [B,E^G]6)"E7" [B,EG]2 |"Am" [A,EA]2"E" [E^GB]2"Am" [EAc]2"Dm/F" [DAd]2 | %42
"E""F#m""Edim/G" (e6"E7/G#" d2) |"Am" [EAc]2"A7/G""Dm/F" ((a4"A7" g)) z | %44
"Dm" [Adf] z"G/B" [GBdg] z"C" [G=ce] z"F/A" [Fcf] z | %45
"Bdim" [FBd] z"E7/G#" [EBe] z"Am" [EAc] z"Bdim" [FBd] z |"Am/E" (([EAc]4"E7" [E^GB]2)) z2 | %47
"Am/C" ([cea]6"Dm" [Bfb]2 |"E" [Be^g]6)"E7/D" ([Beg]2 | %49
"Am/C" [Aea]2"E/B" [Be^gb]2"Am" [ceac']2"C#dim" [^ce_b^c']2 | %50
"Dm/F" [dad']2"A7/E" [=ga^c'e']2"Dm" [fad'f']2"F#dim" [^fa_e'^f']2) | %51
"Gm/Bb"!8va(! [gd'g']2"E7/D" [^gb=e'^g']2"Am/C" [ae'a']2"E" [be'g'b']2 | %52
"Am" [c'e'c''e'']2"Am/C" [ae'a']2"Dm" [fad'f']2"Dm/F" [dad']2!8va)! | %53
"Am/E" [ceac']4"E7" [Bde^gb]4 ||"Am" [Acea]4"E7/B" ([^Gde^g]2"A7/G" [Ae=g]2 | %55
"Dm" [Adf]2"E" [E^Ge]2"F#dim" [EA^d]2"E7/G#" [EB=d]2) | %56
"Am" [EA=c]2 ([Aca]2"E7/B" [^Gde^g]2"A7/C#" [Ae=g]2 | %57
"Dm" [Adf]2"E" [E^Ge]2"F#dim" [EA^d]2"E7/G#" [EB=d]2) |"Am" c2"Am/C""E" e4"E7" =d2 | %59
"Am" c2"Am/C""E" e4"E7" =d2 |"Am" [EAc] z"E" [E^GBe] z"Am" [EAc] z"E" [EGBe] z | %61
"Am" [EAc] z"E" [E^GBe] z"Am" [EAc] z"E" [EGBe] z |"Am" [EAc] z [Acea] z"Am" [ceac'] z [eac'e'] z | %63
"Am" [EAc] z [Acea] z [ceac'] z [eac'e'] z |"Am"!8va(! [ac'e'a'] z z2 [c'e'a'c'']!8va)! z z2 | %65
"Am" [A,CEA]2 z2 z4 |] %66
V:2
 A,,,/A,,/^G,,/A,,/ B,,,/B,,/^A,,/B,,/ C,,/C,/B,,/C,/ D,,/D,/^C,/D,/ | %1
 E,,/E,/^D,/E,/ B,,,/B,,/^A,,/B,,/ E,,/E,/D,/E,/ =D,,/=D,/^C,/D,/ | %2
 =C,,/=C,/B,,/C,/ E,,/E,/^D,/E,/ A,,/A,/^G,/A,/ F,,/F,/E,/F,/ | %3
 E,,/E,/^D,/E,/ ^F,,/^F,/E,/F,/ =G,,/=G,/F,/G,/ ^G,,/^G,/^^F,/G,/ | %4
 A,,/A,/^G,/A,/ =G,,/=G,/^F,/G,/ =F,,/=F,/E,/F,/ ^C,,/^C,/^B,,/C,/ | %5
 D,,/D,/^C,/D,/ B,,,/B,,/^A,,/B,,/ =C,,/=C,/B,,/C,/ =A,,,/=A,,/^G,,/A,,/ | %6
 B,,,/B,,/^A,,/B,,/ ^G,,,/^G,,/^^F,,/G,,/ =A,,,/=A,,/G,,/A,,/ D,,/D,/^C,/D,/ | %7
 E,,/E,/^D,/E,/ =F,/E,/D,/E,/ E,,/E,/D,/E,/ =D,/E,/B,,/E,/ | %8
 A,,/A,/^G,/A,/ B,,/B,/^A,/B,/ C,/C/B,/C/ D,/D/^C/D/ | %9
 E,/E/^D/E/ B,,/B,/^A,/B,/ E,/E/D/E/ D,/=D/^C/D/ | %10
 =C,/=C/B,/C/ B,,/B,/^A,/B,/ =A,,/=A,/^G,/A,/ =G,,/=G,/^F,/G,/ | %11
 =F,,/=F,/E,/F,/ E,,/E,/^D,/E,/ =D,,/=D,/^C,/D,/ =C,,/=C,/B,,/C,/ | %12
 B,,,/B,,/^A,,/B,,/ D,,/D,/^C,/D,/ =C,,/=C,/B,,/C,/ E,,,/E,,/^D,,/E,,/ | %13
 A,,,/A,,/^G,,/A,,/ C,,/C,/B,,/C,/ D,,/D,/^C,/D,/ F,,/F,/E,/F,/ | %14
 E,,/E,/^D,/E,/ F,/E,/D,/E,/ E,,/E,/D,/E,/ F,/E,/D,/E,/ | %15
 A,,,/A,,/^G,,/A,,/ B,,/A,,/G,,/A,,/ B,,,/B,,/^A,,/B,,/ C,/B,,/A,,/B,,/ || %16
 C,,/C,/D,,/D,/ E,,/E,/F,,/F,/ G,,/G,/A,,/A,/ B,,/B,/C,/C/ | %17
 D,/D/E,/E/ F,/F/E,/E/ D,/D/C,/C/ B,,/B,/A,,/A,/ | %18
 G,,/G,/F,,/F,/ E,,/E,/D,,/D,/ C,,/C,/B,,,/B,,/ A,,,/A,,/G,,,/G,,/ | %19
 C,,/C,/D,,/D,/ E,,/E,/F,,/F,/ G,,/G,/A,,/A,/ B,,/B,/C,/C/ | %20
[K:treble] A,/A/^G/A/ =G,/=G/^F/G/[K:bass] =F,/=F/E/F/ E,/E/^D/E/ | %21
 =D,/=D/^C/D/ =C,/=C/B,/C/ B,,/B,/^A,/B,/ C,/C/B,/C/ | %22
 D,,/D,/^C,/D,/ E,/D,/C,/D,/ D,,/D,/C,/D,/ E,/D,/C,/D,/ | %23
 G,,/G,/^F,/G,/ A,/G,/F,/G,/ =F,/G,/E,/G,/ F,/G,/D,/G,/ | %24
 C,,/C,/D,,/D,/ E,,/E,/F,,/F,/ G,,/G,/A,,/A,/ B,,/B,/C,/C/ | %25
 D,/D/E,/E/ F,/F/E,/E/ D,/D/C,/C/ B,,/B,/A,,/A,/ | %26
 G,,/G,/F,,/F,/ E,,/E,/D,,/D,/ C,,/C,/B,,,/B,,/ A,,,/A,,/G,,,/G,,/ | %27
 C,,/C,/D,,/D,/ E,,/E,/F,,/F,/ G,,/G,/A,,/A,/ B,,/B,/C,/C/ | %28
 D,/D/^C/D/ E/D/C/D/ =C,/=C/B,/C/ B,,/B,/^A,/B,/ | %29
 A,,/A,/^G,/A,/ ^G,,/^G,/^^F,/G,/ A,,/A,/G,/A,/ =G,,/=G,/^F,/G,/ | %30
 ^F,,/^F,/^E,/F,/ G,,/G,/F,/G,/ F,,/F,/E,/F,/ =F,,/=F,/=E,/F,/ | %31
 E,,/E,/^D,/E,/ F,/E,/D,/E,/ =D,,/=D,/B,,,/B,,/ E,,/E,/D,,/D,/ | %32
 C,,/C,/B,,/C,/ D,/C,/B,,/C,/ A,,,/A,,/^G,,,/^G,,/ B,,,/B,,/A,,,/A,,/ | %33
 E,,/E,/^D,/E,/ F,/E,/D,/E,/ =D,,/=D,/B,,,/B,,/ E,,/E,/D,,/D,/ | %34
 C,,/C,/B,,/C,/ D,/C,/B,,/C,/ A,,,/A,,/^G,,,/^G,,/ B,,,/B,,/A,,,/A,,/ | %35
 E,,,/E,,/^D,,,/^D,,/ E,,,/E,,/F,,,/F,,/ E,,,/E,,/A,,,/A,,/ ^G,,,/^G,,/C,,/C,/ | %36
 B,,,/B,,/F,,/F,/ E,,/E,/A,,/A,/ ^G,,/^G,/C,/C/ B,,/B,/F,/F/ | %37
 E,/E/^D,/^D/ F,/F/E,/E/ =D,/=D/C,/C/ B,,/B,/A,,/A,/ | %38
 ^G,,/^G,/F,,/F,/ E,,/E,/F,,/F,/ E,,/E,/D,,/D,/ C,,/C,/B,,,/B,,/ || %39
 A,,,/A,,/^G,,/A,,/ B,,,/B,,/^A,,/B,,/ C,,/C,/B,,/C,/ D,,/D,/^C,/D,/ | %40
 E,,/E,/^D,/E,/ B,,,/B,,/^A,,/B,,/ E,,/E,/D,/E,/ =D,,/=D,/^C,/D,/ | %41
 =C,,/=C,/B,,/C,/ E,,/E,/^D,/E,/ A,,/A,/^G,/A,/ F,,/F,/E,/F,/ | %42
 E,,/E,/^D,/E,/ ^F,,/^F,/E,/F,/ =G,,/=G,/F,/G,/ ^G,,/^G,/^^F,/G,/ | %43
 A,,/A,/^G,/A,/ =G,,/=G,/^F,/G,/ =F,,/=F,/E,/F,/ ^C,,/^C,/^B,,/C,/ | %44
 D,,/D,/^C,/D,/ B,,,/B,,/^A,,/B,,/ =C,,/=C,/B,,/C,/ =A,,,/=A,,/^G,,/A,,/ | %45
 B,,,/B,,/^A,,/B,,/ ^G,,,/^G,,/^^F,,/G,,/ =A,,,/=A,,/G,,/A,,/ D,,/D,/^C,/D,/ | %46
 E,,/E,/^D,/E,/ =F,/E,/D,/E,/ E,,/E,/D,/E,/ =D,/E,/B,,/E,/ | %47
 A,,/A,/^G,/A,/ B,,/B,/^A,/B,/ C,/C/B,/C/ D,/D/^C/D/ | %48
 E,/E/^D/E/ B,,/B,/^A,/B,/ E,/E/D/E/ D,/=D/^C/D/ | %49
 =C,/=C/B,/C/ B,,/B,/^A,/B,/ =A,,/=A,/^G,/A,/ =G,,/=G,/^F,/G,/ | %50
 =F,,/=F,/E,/F,/ E,,/E,/^D,/E,/ =D,,/=D,/^C,/D,/ =C,,/=C,/B,,/C,/ | %51
 B,,,/B,,/^A,,/B,,/ D,,/D,/^C,/D,/ =C,,/=C,/B,,/C,/ E,,,/E,,/^D,,/E,,/ | %52
 A,,,/A,,/^G,,/A,,/ C,,/C,/B,,/C,/ D,,/D,/^C,/D,/ F,,/F,/E,/F,/ | %53
 E,,/E,/^D,/E,/ F,/E,/D,/E,/ E,,/E,/D,/E,/ F,/E,/D,/E,/ || %54
 A,,,/A,,/^G,,/A,,/ B,,/A,,/G,,/A,,/ B,,,/B,,/^A,,/B,,/ ^C,,/^C,/^B,,/C,/ | %55
 D,,/D,/^C,/D,/ E,,/E,/^D,/E,/ ^F,,/^F,/^E,/F,/ ^G,,/^G,/^^F,/G,/ | %56
 A,,/A,/^G,/A,/ A,,,/A,,/^G,,/A,,/ B,,,/B,,/^A,,/B,,/ ^C,,/^C,/B,,/C,/ | %57
 D,,/D,/^C,/D,/ E,,/E,/^D,/E,/ ^F,,/^F,/^E,/F,/ ^G,,/^G,/^^F,/G,/ | %58
 A,,/A,/^G,/A,/ C,/C/B,/C/ E,/E/^D/E/ E,,/E,/^D,/E,/ | %59
 A,,/A,/^G,/A,/ C,/C/B,/C/ E,/E/^D/E/ E,,/E,/^D,/E,/ | %60
 A,,/A,/^G,/A,/ E,,/E,/^D,/E,/ A,,/A,/G,/A,/ E,,/E,/D,/E,/ | %61
 A,,/A,/^G,/A,/ E,,/E,/^D,/E,/ A,,/A,/G,/A,/ E,,/E,/D,/E,/ | %62
 A,,/A,/^G,/A,/ A,,/A,/G,/A,/ E,,/E,/^D,/E,/ C,,/C,/B,,/C,/ | [A,,,A,,] z z2 [A,,C,E,A,] z z2 | %64
 [A,,,A,,]2 z2 [A,,C,E,A,] z z2 | [A,,,A,,]2 z2 z4 |] %66
V:3
 x8 | x8 | x8 | ^G2 A2 ^A2 B2 | x2 ^c2"Dm/F" d2 =e2 | x8 | x8 | x8 | x8 | x8 | x8 | x8 |!8va(! x8 | %13
 x8!8va)! | x8 | x8 || x8 | x8 | x8 | x8 | x8 | x8 | [DGB]4 [C^FA]4 | x8 | x8 | x8 | x8 | x8 | x8 | %29
 x8 | x8 | x8 | x8 | x8 | x8 | x8 | x8 | x8 | x8 || x8 | x8 | x8 | ^G2 A2 ^A2 B2 | x2 ^c2 d2 =e2 | %44
 x8 | x8 | x8 | x8 | x8 | x8 | x8 |!8va(! x8 | x8!8va)! | x8 || x8 | x8 | x8 | x8 | [EA]4 [^GB]4 | %59
 [EA]4 [^GB]4 | x8 | x8 | x8 | x8 |!8va(! x5!8va)! x3 | x8 |] %66
V:4
 x8 | x8 | x8 | E6 E2 | x2 A4 A z | x8 | x8 | x8 | x8 | x8 | x8 | x8 |!8va(! x8 | x8!8va)! | x8 | %15
 x8 || x8 | x8 | x8 | x8 | x8 | x8 | x8 | x8 | x8 | x8 | x8 | x8 | x8 | x8 | x8 | x8 | x8 | x8 | %34
 x8 | x8 | x8 | x8 | x8 || x8 | x8 | x8 | E6 E2 | x2 A4 A z | x8 | x8 | x8 | x8 | x8 | x8 | x8 | %51
!8va(! x8 | x8!8va)! | x8 || x8 | x8 | x8 | x8 | x8 | x8 | x8 | x8 | x8 | x8 |!8va(! x5!8va)! x3 | %65
 x8 |] %66

